X: 1
T:AIR XXXIX. Dainty Davy.
B:Joseph Mitchell: "The Highland Fair" (1731)
Z:Jack Campin <http://www.purr.demon.co.uk/jack/jack.html>
M:C|
L:1/8
K:AMin
c2|G3F  E2D2|C2A,2 C4 | C2  G2   EF  G2  |C2G2 E2
c2|G3F  E2D2|C2A,2 C3B|(cB)(cA) (cB)(A^G)|A4   c4||
   c2e2 c2e2|c2e2 e2dc| B2  d2   B2  d2  |B2d2 d2
cB|c2e2 c2e2|c2e2 e2dc|(dc)(BA) (cB)(A^G)|A6     |]
